X:2
T:Morning Star, The
C:Trad. arr. John Doyle
L:1/8
Q:1/4=150
M:4/4
K:F
|: F3G AB AG |FG (3A_Bc de fc | AF cA _Bc AG | FA GE Fc z_B |
GA z_B AG (3CDE | FG (3A_Bc de fc |AF cA _Bc AG | FA GE F2 G2 |
_Bc df z2 Be | zd ce dc AG | A_B ce fc (3def | ed ce dc dG |
_Bc d[fA] z2 Be | zd ce dc AG | A3_B _zc de | ef ge ed c_B :|]
